X: 8234
T: Copycat, The
R: jig
M: 6/8
K: Aminor
[M: 7/8]
|:Ace dc AG|F/G/AF GE DA/A/|Acd de eA|agf fe ec|
Ace dc AG|EFA G2 BG|A/B/cA B2 dB|1 ceg aA aA:|2 ceg aA ab||
|:c'ba g2 bg|agf fe eA|agf ec AA|ded cA BG|
AA/B/c dG GE|FAF GG BG|A/B/cA BB dB|1 ceg a2 ab:|2 ceg a2 z2||
|:AAA a2 aA|AAA g2 gA|AAA f2 fA|
[1 AAA AA AA:|2 A/B/cf ec Bc:|3 efe ec Bc:|4 fed ef ec||

